!!!!SEGMENT: pl-gd--ee-1638--008-017_marenzio-luca--il-quarto-libro-de-madrigalia-a-sei-voci-questa-ordi-il-laecio.krn
!!!cenid: 15xx:879
!!!COM: Marenzio, Luca
!!!COM-rismID:
!!!CDT: ~1553-1599/08/22
!!!CNT: Italian
!!!GTL: Il Quarto Libro de madrigalia a sei voci
!!!OTL: Questa ordi il làecio
!!!OMV: 017
!!!PDT: 1587
!!!AGN:
!!!SMS-siglum: PL-GD
!!!SMS-shelfmark: Ee 1638
!!!SMS-variant:
!!!SMS-altvar:
!!!SMS-shelfwork: 008-017 G
!!!NIFC-rismSourceID: 990039254
!!!NIFC-islandoraID: pl-gd:57883
!!!URL-pdf-islandora: https://repozytorium.nifc.pl/islandora/object/pl-gd%3A57883/datastream/PDF/view
!!!URL-scan: https://polish.musicsources.pl/pl/lokalizacje/galeria/klocki-introligatorskie/655 @EN{Scan on Polish Music Herritage in Open Access Website} @PL{Skany w portalu Dziedzictwo Muzyki Polskiej w otwartym dostępie}
!!!ONB-nifc: UWAGA: zbiór na stronach: Canto: s. 706-716, Alto: s. 554-564, Tenore: s. 402-412, Basso: s.250-260, Quinto: s. 98-108, Sesto: s. 16-26. Uwaga: utwory podzielone wg tytułów w spisach treści dostępnych na końcu każdej księgi głosowej.
!!!AIN: 1 alto 1 bass  1 soprn 1 tenor 2 vox
!!!key: F
**kern	**text	**kern	**text	**kern	**text	**kern	**text	**kern	**text	**kern	**text
*part6	*part6	*part5	*part5	*part4	*part4	*part3	*part3	*part2	*part2	*part1	*part1
*staff6	*staff6	*staff5	*staff5	*staff4	*staff4	*staff3	*staff3	*staff2	*staff2	*staff1	*staff1
*I"SESTO	*	*I"QVINTO	*	*I"BASSO	*	*I"TENORE	*	*I"ALTO	*	*I"CANTO	*
*I'V II	*	*I'V I	*	*I'B	*	*I'T	*	*I'A	*	*I'S	*
*ICvox	*	*ICvox	*	*ICvox	*	*ICvox	*	*ICvox	*	*ICvox	*
*Ivox	*	*Ivox	*	*Ibass 	*	*Itenor	*	*Ialto	*	*Isoprn	*
*clefC4	*	*clefC1	*	*clefF4	*	*clefC4	*	*clefC3	*	*clefC1	*
*k[b-]	*	*k[b-]	*	*k[b-]	*	*k[b-]	*	*k[b-]	*	*k[b-]	*
*F:	*	*F:	*	*F:	*	*F:	*	*F:	*	*F:	*
*M2/1	*	*M2/1	*	*M2/1	*	*M2/1	*	*M2/1	*	*M2/1	*
*met(C)	*	*met(C)	*	*met(C)	*	*met(C)	*	*met(C)	*	*met(C)	*
=1-	=1-	=1-	=1-	=1-	=1-	=1-	=1-	=1-	=1-	=1-	=1-
!	!	!	!	!LO:TX:b:i:t=QVeſta ordi.	!	!	!	!	!	!	!
1F	QVeſ-	1a	QVeſ-	00r	.	2r	.	1f	QVeſ-	1cc	QVeſ-
.	.	.	.	.	.	1c	QVeſ-	.	.	.	.
1F	-ta	4.f/	-ta or-	.	.	.	.	1c	-ta	4.a\	-ta or-
.	.	8g/	-di il-	.	.	.	.	.	.	8b-\	-di il-
.	.	4.a\	-lac-	.	.	4.A/	-ta or-	.	.	4.cc\	-làc-
.	.	16g/	.	.	.	8B-\	-di il-	.	.	16b-\	.
.	.	16f/	.	.	.	.	.	.	.	16a\	.
=2-	=2-	=2-	=2-	=2-	=2-	=2-	=2-	=2-	=2-	=2-	=2-
0r	.	4.e/	.	.	.	4.c\	-lac-	0r	.	4.g/	.
.	.	8f/	.	.	.	16B-\	.	.	.	8a\	.
.	.	.	.	.	.	16A\	.	.	.	.	.
.	.	8g/	.	.	.	4.G/	.	.	.	4.b-\	.
.	.	8d/	.	.	.	.	.	.	.	.	.
.	.	4.g/	.	.	.	.	.	.	.	.	.
.	.	.	.	.	.	16F/	.	.	.	16a\	.
.	.	.	.	.	.	16E/	.	.	.	16g\	.
.	.	.	.	.	.	2D/	.	.	.	4.a\	.
.	.	8f/	.	.	.	.	.	.	.	.	.
.	.	4.f/	.	.	.	.	.	.	.	.	.
.	.	.	.	.	.	.	.	.	.	16g/	.
.	.	.	.	.	.	.	.	.	.	16f/	.
.	.	.	.	.	.	2C/	-cio	.	.	2g/	.
.	.	16e/	.	.	.	.	.	.	.	.	.
.	.	16d/	.	.	.	.	.	.	.	.	.
.	.	4e/	.	.	.	.	.	.	.	.	.
=3-	=3-	=3-	=3-	=3-	=3-	=3-	=3-	=3-	=3-	=3-	=3-
2r	.	1f	-cio	2r	.	2r	.	2r	.	0a	-cio
1A	Queſ-	.	.	1F	Queſ-	1c	Queſ-	1f	Queſ-	.	.
.	.	1r	.	.	.	.	.	.	.	.	.
4c\	-ta	.	.	4F\	-ta	4A/	-ta	4f\	-ta	.	.
4f\	ſi	.	.	4F\	ſi	4c\	ſi	4a\	ſi	.	.
*	*	*	*	*	*	*custos:B	*	*	*	*	*
!	!	!	!	!	!	!LO:LB:g=original	!	!	!	!	!
=4-	=4-	=4-	=4-	=4-	=4-	=4-	=4-	=4-	=4-	=4-	=4-
!	!	!	!	!	!	!LO:N:acc=#	!	!	!	!	!
4.d\	bel-	2r	.	4G\	bel-	4.Bn\	bel-	4.g\	bel-	1r	.
.	.	.	.	4G\	-la	.	.	.	.	.	.
8d\	-la	.	.	.	.	8B\	-la	8f\	-la	.	.
4c\	mã	4r	.	4A\	mã	2c\	man	4e\	man	.	.
4A/	fra	4a\	fra	4F\	fra	.	.	4f\	fra	.	.
*	*	*custos:dd	*	*	*	*	*	*	*	*	*
!	!	!LO:LB:g=original	!	!	!	!	!	!	!	!	!
4B-\	fio-	4.dd\	fio-	4.B-\	fio-	2r	.	4f\	fio-	2r	.
4G/	-ri e	.	.	.	.	.	.	4g\	-ri e	.	.
.	.	16cc\	.	16A\	.	.	.	.	.	.	.
.	.	16b-\	.	16G\	.	.	.	.	.	.	.
4c\	l'her-	4cc\	.	4A\	.	4r	.	4e\	l'her-	4r	.
4A/	-ba il	4cc\	-ri e	4F\	-ri e	4c\	fra	4f\	-ba il	4a\	fra
*	*	*	*	*	*	*	*	*	*	*custos:dd	*
!	!	!	!	!	!	!	!	!	!	!LO:LB:g=original	!
=5-	=5-	=5-	=5-	=5-	=5-	=5-	=5-	=5-	=5-	=5-	=5-
4B-\	te-	4g/	l'her-	4G\	l'her-	4.B-y\	fio-	4d\	te-	4.dd\	fio-
4G/	-fe	4d/	-ba il	4G\	-ba il	.	.	4B-/	-ſe	.	.
.	.	.	.	.	.	16A/	.	.	.	16cc\	.
.	.	.	.	.	.	16G/	.	.	.	16b-\	.
*	*	*	*	*custos:F	*	*	*	*	*	*	*
!	!	!	!	!LO:LB:g=original	!	!	!	!	!	!	!
4r	.	2f/	te-	2F\	te-	2A/	.	4r	.	4cc\	.
4c\	fra	.	.	.	.	.	.	4A/	fra	4cc\	-ri e
*custos:B-	*	*	*	*	*	*	*	*custos:d	*	*	*
!LO:LB:g=original	!	!	!	!	!	!	!	!LO:LB:g=original	!	!	!
4.B-\	fio-	2f/	-ſe	2BB-/	-ſe	1F	-ri	4.d\	fio-	4dd\	l'her-
.	.	.	.	.	.	.	.	.	.	4d/	-ba il
16A/	.	.	.	.	.	.	.	16c\	.	.	.
16G/	.	.	.	.	.	.	.	16B-/	.	.	.
4A/	.	4r	.	4r	.	.	.	4c/	.	2f/	te-
4A/	-ri e	4a\	fra	4F\	Fra	.	.	4f\	-ri e	.	.
=6-	=6-	=6-	=6-	=6-	=6-	=6-	=6-	=6-	=6-	=6-	=6-
4G/	l'her-	4.dd\	fio-	4.B-\	fio-	2r	.	4d\	l'her-	2g/	-ſe
4G/	-ba il	.	.	.	.	.	.	4d\	-ba il	.	.
.	.	16cc\	.	16A\	.	.	.	.	.	.	.
.	.	16b-\	.	16G\	.	.	.	.	.	.	.
2F/	te-	4cc\	.	4A\	.	4r	.	2f\	te-	4r	.
.	.	4cc\	-ri e	4F\	-ri e	4c\	fra	.	.	4a\	fra
4B-\	-fe	4g/	l'her-	4G\	l'her-	4.B-\	fio-	2d\	-ſe	4.dd\	fio-
4G/	fra	4d/	-ba il	4G\	-ba il	.	.	.	.	.	.
.	.	.	.	.	.	16A/	.	.	.	16cc\	.
.	.	.	.	.	.	16G/	.	.	.	16b-\	.
4c\	fio-	2a\	te-	2F\	te-	4A/	.	2r	.	4cc\	.
4A/	-ri e	.	.	.	.	4F/	-ri e	.	.	4c/	-ri e
=7-	=7-	=7-	=7-	=7-	=7-	=7-	=7-	=7-	=7-	=7-	=7-
4c\	l'her-	2g/	-ſe	4.C/	-ſe	4G/	l'her-	1r	.	4e/	l'her-
4c\	-ba il	.	.	.	.	4c\	-ba il	.	.	4e/	-ba il
.	.	.	.	16BB-/	.	.	.	.	.	.	.
.	.	.	.	16AA/	.	.	.	.	.	.	.
!	!	!	!	!	!	!LO:N:acc=#	!	!	!	!	!
2d\	te-	2r	.	2GG/	.	2Bn\	te-	.	.	2g/	te-
2e\	-fe	4r	.	4r	.	1c	-ſe	4r	.	2g/	-ſe
.	.	4g/	E	4C/	E	.	.	4e\	E	.	.
4r	.	4.a\	que-	2.F\	queſ-	.	.	2.f\	queſ-	2r	.
4c\	E	.	.	.	.	.	.	.	.	.	.
.	.	8b-\	.	.	.	.	.	.	.	.	.
=8-	=8-	=8-	=8-	=8-	=8-	=8-	=8-	=8-	=8-	=8-	=8-
4A/	queſ-	4cc\	.	.	.	0r	.	.	.	0r	.
4G/	-ta il	4b-\	-ſta il	4G\	-ta il	.	.	4d\	-ta il	.	.
*custos:F#	*	*custos:a	*	*	*	*	*	*	*	*	*
!LO:LB:g=original	!	!LO:LB:g=original	!	!	!	!	!	!	!	!	!
4F#X/	cor	4a\	cor	4D/	cor	.	.	4d\	cor	.	.
4G/	mi	4g/	mi	4E-X\	mi	.	.	4B-/	mi	.	.
2A/	pre-	1f#X	pre-	2D/	pre-	.	.	1d	pre-	.	.
2A/	-ſe	.	.	2D/	-ſe	.	.	.	.	.	.
*	*	*	*	*custos:D	*	*custos:d	*	*	*	*	*
!	!	!	!	!LO:LB:g=original	!	!LO:LB:g=original	!	!	!	!	!
=9-	=9-	=9-	=9-	=9-	=9-	=9-	=9-	=9-	=9-	=9-	=9-
2r	.	4f#yX/	-ſe E	2r	.	2r	.	4d\	-ſe E	4dd\	E
.	.	8a\	fù	.	.	.	.	8f\	fù	8cc\	fù
.	.	8g/	ſi	.	.	.	.	8g\	ſi	8b-\	ſi
4A/	E	8f#X/	preſ-	4D/	E	4d\	E	8d\	preſ-	8a\	preſ-
.	.	8f#/	-ta	.	.	.	.	8d\	-ta	8a\	-ta
8A/	fù	4r	.	8F\	fù	8c\	fù	4r	.	4r	.
8G/	ſi	.	.	8G\	ſi	8B-y\	ſi	.	.	.	.
*	*	*	*	*	*	*	*	*custos:d	*	*	*
!	!	!	!	!	!	!	!	!LO:LB:g=original	!	!	!
8F#X/	preſ-	4a\	E	8D/	preſ-	8A/	preſ-	4d\	E	4dd\	E
8F#/	-ta	.	.	8D/	-ta	8A/	-ta	.	.	.	.
4r	.	8a\	fù	4r	.	4r	.	8f\	fù	8cc\	fù
.	.	8g/	ſi	.	.	.	.	8g\	ſi	8b-\	ſi
4d\	E	8f#X/	preſ-	4D/	E	4A/	E	8d\	preſ-	8a\	preſ-
.	.	8f#/	-ta	.	.	.	.	8d\	-ta	8a\	-ta
8c\	fù	4r	.	8F\	fù	8A/	fù	4r	.	4r	.
8B-\	ſi	.	.	8G\	ſi	8G/	ſi	.	.	.	.
=10-	=10-	=10-	=10-	=10-	=10-	=10-	=10-	=10-	=10-	=10-	=10-
8A/	preſ-	2a\	A	8D/	preſ-	8F#X/	preſ-	2.d\	A	2dd\	A
8A/	-ta	.	.	8D/	-ta	8F#/	-ta	.	.	.	.
4r	.	.	.	4r	.	4r	.	.	.	.	.
4r	.	4.b-\	trar-	2G\	A	2r	.	.	.	4.dd\	trar-
2G/	A	.	.	.	.	.	.	4.d\	trar-	.	.
.	.	8a\	-lo in	.	.	.	.	.	.	8cc\	-lo in
.	.	4.g/	mez-	4.G\	trar-	2d\	A	.	.	4.b-\	mez-
.	.	.	.	.	.	.	.	8c/	-lo in	.	.
4.g\	trar-	.	.	.	.	.	.	4.B-/	mez-	.	.
.	.	8a\	-zo à	8F\	-lo in	.	.	.	.	8a\	-zo à
.	.	4b-\	mil-	4.E-X\	mez-	4.g\	trar-	.	.	4g/	mil-
8f\	-lo in	.	.	.	.	.	.	8A/	-zo à	.	.
4.e-X\	mez-	4b-\	-le	.	.	.	.	2G/	mil-	4g/	-le
.	.	.	.	8D/	-zo à	8f\	-lo in	.	.	.	.
=11-	=11-	=11-	=11-	=11-	=11-	=11-	=11-	=11-	=11-	=11-	=11-
.	.	2cc\	fiã-	2C/	mil-	4.e-X\	mez-	.	.	1g	fiam-
8d\	-zo à	.	.	.	.	.	.	.	.	.	.
2c\	mil-	.	.	.	.	.	.	4g\	-le	.	.
.	.	.	.	.	.	8d\	-zo à	.	.	.	.
*	*	*custos:g	*	*	*	*	*	*	*	*	*
!	!	!LO:LB:g=original	!	!	!	!	!	!	!	!	!
.	.	4g/	-me	2C/	-le	1c	mil-	4e\	fiam-	.	.
4G/	-le	4.cc\	ac-	.	.	.	.	4e\	-me ac-	.	.
*custos:F	*	*	*	*	*	*	*	*	*	*	*
!LO:LB:g=original	!	!	!	!	!	!	!	!	!	!	!
4Fny/	fiã-	.	.	1.F	fiã-	.	.	2f\	-ce-	4a\	-me ac-
.	.	8b-\	-ce-	.	.	.	.	.	.	.	.
4A/	-me ac-	8a\	.	.	.	.	.	.	.	4.cc\	-ce-
.	.	8g/	.	.	.	.	.	.	.	.	.
2c\	-ce-	4.fny/	.	.	.	2A/	-le	2F/	-ſe	.	.
.	.	.	.	.	.	.	.	.	.	8b-\	.
.	.	.	.	.	.	.	.	.	.	8a\	.
.	.	8g/	.	.	.	.	.	.	.	8g\	.
*	*	*	*	*	*	*	*	*	*	*custos:f	*
!	!	!	!	!	!	!	!	!	!	!LO:LB:g=original	!
=12-	=12-	=12-	=12-	=12-	=12-	=12-	=12-	=12-	=12-	=12-	=12-
1c	-ſe	4.a\	.	.	.	4.A/	fiam	00r	.	8f/	.
.	.	.	.	.	.	.	.	.	.	8g/	.
.	.	.	.	.	.	.	.	.	.	4.a\	.
.	.	16g/	.	.	.	8B-\	.	.	.	.	.
.	.	16f/	.	.	.	.	.	.	.	.	.
.	.	4.e/	.	2A\	-me ac-	4c\	me	.	.	.	.
.	.	.	.	.	.	.	.	.	.	8b-\	.
.	.	.	.	.	.	4c\	ac-	.	.	8cc\	.
.	.	8f/	.	.	.	.	.	.	.	8a\	.
*	*	*	*	*custos:G	*	*custos:d	*	*	*	*	*
!	!	!	!	!LO:LB:g=original	!	!LO:LB:g=original	!	!	!	!LO:N:acc=#	!
1r	.	1g	.	1G	-ce-	1d	-ce-	.	.	4bn\	.
.	.	.	.	.	.	.	.	.	.	2cc\	.
!	!	!	!	!	!	!	!	!	!	!LO:N:acc=#	!
.	.	.	.	.	.	.	.	.	.	4bn\	.
=13-	=13-	=13-	=13-	=13-	=13-	=13-	=13-	=13-	=13-	=13-	=13-
2r	.	1g	-ſe	1C	-ſe	1c	-ſe	.	.	1cc	-ſe
4r	.	.	.	.	.	.	.	.	.	.	.
4.c\	Hor	.	.	.	.	.	.	.	.	.	.
.	.	4.a\	Hor	4.F\	Hor	1r	.	.	.	1r	.
8c\	che	.	.	.	.	.	.	.	.	.	.
2d\	l'hò	.	.	.	.	.	.	.	.	.	.
.	.	8a\	che	8F\	che	.	.	.	.	.	.
.	.	2b-\	l'hò	2G\	l'hò	.	.	.	.	.	.
4.eny\	qui	.	.	.	.	.	.	.	.	.	.
=14-	=14-	=14-	=14-	=14-	=14-	=14-	=14-	=14-	=14-	=14-	=14-
.	.	4.cc\	qui	4.A\	qui	1r	.	1r	.	1r	.
8c\	riſ-	.	.	.	.	.	.	.	.	.	.
4.f\	-tret-	.	.	.	.	.	.	.	.	.	.
.	.	8dd\	riſ-	8B-\	riſ-	.	.	.	.	.	.
.	.	2b-\	-tret-	2G\	-tret-	.	.	.	.	.	.
16e\	.	.	.	.	.	.	.	.	.	.	.
16d\	.	.	.	.	.	.	.	.	.	.	.
4e\	.	.	.	.	.	.	.	.	.	.	.
1f	-ta	1a	-ta	1F	-ta	2r	.	4r	.	2r	.
.	.	.	.	.	.	.	.	4.c/	Hor	.	.
.	.	.	.	.	.	4.Fny/	Hor	.	.	4.a\	Hor
.	.	.	.	.	.	.	.	8c/	che	.	.
.	.	.	.	.	.	.	.	2d\	l'hò	.	.
.	.	.	.	.	.	8F/	che	.	.	8a\	che
*	*	*	*	*	*	*	*	*custos:e	*	*	*
!	!	!	!	!	!	!	!	!LO:LB:g=original	!	!	!
=15-	=15-	=15-	=15-	=15-	=15-	=15-	=15-	=15-	=15-	=15-	=15-
0r	.	0r	.	0r	.	2G/	l'hò	.	.	2b-y\	l'hò
.	.	.	.	.	.	.	.	4.e\	qui	.	.
.	.	.	.	.	.	4.A/	qui	.	.	4.cc\	qui
.	.	.	.	.	.	.	.	8c/	riſ-	.	.
.	.	.	.	.	.	.	.	2f\	-tret-	.	.
.	.	.	.	.	.	8B-\	riſ-	.	.	8dd\	riſ-
.	.	.	.	.	.	1G	-tret-	.	.	1b-	-tret-
.	.	.	.	.	.	.	.	8e\	.	.	.
.	.	.	.	.	.	.	.	8d\	.	.	.
.	.	.	.	.	.	.	.	2e\	.	.	.
=16-	=16-	=16-	=16-	=16-	=16-	=16-	=16-	=16-	=16-	=16-	=16-
4r	.	4r	.	4r	.	2F/	-ta	4f\	-ta	2a\	-ta
4A/	Vẽ(n)-	4cc\	Vẽ(n)-	4F\	Vẽ(n)-	.	.	4d/	Vẽ(n)-	.	.
4G/	-det-	4.cc\	-det-	4Eny\	-det-	2r	.	4.e\	-det-	2r	.
4G/	-t'A-	.	.	4C/	-ta A-	.	.	.	.	.	.
.	.	8b-\	-ta A-	.	.	.	.	8d\	-ta A-	.	.
*	*	*custos:a	*	*	*	*	*	*	*	*	*
!	!	!LO:LB:g=original	!	!	!	!	!	!	!	!	!
4A/	-mor	4a\	-mor	4F\	-mor	4r	.	4c/	-mor	4r	.
4c\	vẽ(n)-	4a\	vẽ(n)-	4FF/	ven-	4F/	Vẽ(n)-	4f\	ven-	4cc\	Vẽ(n)-
2c\	-det-	2g/	-det-	2C/	-det-	4.G/	-det-	2e\	-det-	4.cc\	-det-
.	.	.	.	.	.	8G/	-ta A-	.	.	8b-\	-ta A-
*custos:c	*	*	*	*	*	*	*	*	*	*custos:a	*
!LO:LB:g=original	!	!	!	!	!	!	!	!	!	!LO:LB:g=original	!
=17-	=17-	=17-	=17-	=17-	=17-	=17-	=17-	=17-	=17-	=17-	=17-
1c	-ta	4f/	-ta	4FF/	-ta	4A/	-mor	4f\	-ta	4a\	-mor
.	.	4cc\	Vẽ(n)-	4F\	Ven-	4A/	ven-	4c/	Vẽ(n)-	4a\	ven-
.	.	4.cc\	-det-	4E\	-det-	1c	-det-	4.e\	-det-	2g/	-det-
.	.	.	.	4C/	-ta A-	.	.	.	.	.	.
.	.	8b-\	-t'A-	.	.	.	.	8d\	-ta A-	.	.
*	*	*	*	*custos:F	*	*	*	*	*	*	*
!	!	!	!	!LO:LB:g=original	!	!	!	!	!	!	!
4r	.	4a\	-mor	4F\	-mor	.	.	4c/	-mor	4f/	-ta
4F/	Vẽ(n)-	4a\	ven-	4FF/	ven-	.	.	4f\	ven-	4cc\	Vẽ(n)-
4.G/	-det-	2g/	-det-	2C/	-det-	2c\	-ta	2e\	-det-	4.cc\	-det-
8G/	-t'A-	.	.	.	.	.	.	.	.	8b-\	-ta A-
=18-	=18-	=18-	=18-	=18-	=18-	=18-	=18-	=18-	=18-	=18-	=18-
2A/	-mor	4f/	-ta	4FF/	-ta	4r	.	4c/	-ta	4a\	-mor
.	.	4cc\	Vẽ(n)-	4FF/	ven-	4f\	Vẽ(n)-	4F/	Ven-	4a\	ven-
*	*	*	*	*	*	*	*	*custos:G	*	*	*
!	!	!	!	!	!	!	!	!LO:LB:g=original	!	!	!
4r	.	4.cc\	-det-	2C/	-det-	4.eny\	-det-	4.G/	-det-	2g/	-det-
4c\	Vẽ(n)-	.	.	.	.	.	.	.	.	.	.
.	.	8b-\	-t'A-	.	.	8e\	-ta A-	8G/	-ta A-	.	.
*	*	*	*	*	*	*custos:f	*	*	*	*	*
!	!	!	!	!	!	!LO:LB:g=original	!	!	!	!	!
4.c\	-det-	4a\	-mor	2FF/	-ta	2f\	-mor	2A/	-mor	2f/	-ta
.	.	2a\	ven-	.	.	.	.	.	.	.	.
8B-\	-t'A-	.	.	.	.	.	.	.	.	.	.
4A/	-mor	.	.	2FF/	ven-	4F/	ven-	2c/	ven-	4r	.
4A/	ven-	2f/	-det-	.	.	2c\	-det-	.	.	4cc\	ven-
=19-	=19-	=19-	=19-	=19-	=19-	=19-	=19-	=19-	=19-	=19-	=19-
1G	-det-	.	.	1C	-det-	.	.	1c	-det-	1cc	-det-
.	.	8e/	.	.	.	8B-\	.	.	.	.	.
.	.	8d/	.	.	.	8A\	.	.	.	.	.
.	.	2e/	.	.	.	2G/	.	.	.	.	.
1F	-ta	1f	-ta	1FF	-ta	1A	-ta	1c	-ta	1a	-ta
=20-	=20-	=20-	=20-	=20-	=20-	=20-	=20-	=20-	=20-	=20-	=20-
4r	.	4r	.	2F\	E	0r	.	4r	.	0r	.
2c\	E	2a\	E	.	.	.	.	2f\	E	.	.
.	.	.	.	2.F\	queſ-	.	.	.	.	.	.
2A/	queſ-	2cc\	queſ-	.	.	.	.	2f\	queſ-	.	.
4G/	-ta il	4b-\	-ta il	4G\	-ta il	.	.	4d\	-ta il	.	.
*	*	*custos:a	*	*	*	*	*	*	*	*	*
!	!	!LO:LB:g=original	!	!	!	!	!	!	!	!	!
4F#X/	cor	4a\	cor	4D/	cor	.	.	4d\	cor	.	.
4G/	mi	4g/	mi	4E-X\	mi	.	.	4B-/	mi	.	.
=21-	=21-	=21-	=21-	=21-	=21-	=21-	=21-	=21-	=21-	=21-	=21-
2A/	pre-	1f#X	pre	2D/	pre-	1r	.	1d	pre-	1r	.
2A/	-ſe e	.	.	2D/	-ſe	.	.	.	.	.	.
*custos:A	*	*	*	*	*	*	*	*	*	*	*
!LO:LB:g=original	!	!	!	!	!	!	!	!	!	!	!
2r	.	4f#/	ſe e	2r	.	2r	.	4d\	-ſe e	4dd\	E
.	.	8a\	fu	.	.	.	.	8f\	fù	8cc\	fù
.	.	8g/	ſi	.	.	.	.	8g\	ſi	8b-\	ſi
4A/	E	8f#X/	preſ-	4D/	E	4d\	E	8d\	preſ-	8a\	preſ-
.	.	8f#/	-ta	.	.	.	.	8d\	-ta	8a\	-ta
8A/	fu	4r	.	8F\	fù	8c\	fù	4r	.	4r	.
8G/	ſi	.	.	8G\	ſi	8B-\	ſi	.	.	.	.
*	*	*	*	*	*	*	*	*custos:d	*	*custos:dd	*
!	!	!	!	!	!	!	!	!LO:LB:g=original	!	!LO:LB:g=original	!
=22-	=22-	=22-	=22-	=22-	=22-	=22-	=22-	=22-	=22-	=22-	=22-
8F#X/	preſ-	4a\	E	8D/	preſ-	8A/	preſ-	4d\	E	4dd\	E
8F#/	-ta	.	.	8D/	-ta	8A/	-ta	.	.	.	.
4r	.	8a\	fù	4r	.	4r	.	8f\	fù	8cc\	fù
.	.	8g/	ſi	.	.	.	.	8g\	ſi	8b-\	ſi
*	*	*	*	*custos:D	*	*	*	*	*	*	*
!	!	!	!	!LO:LB:g=original	!	!	!	!	!	!	!
4d\	E	8f#X/	preſ-	4D/	E	4A/	E	8d\	preſ-	8a\	preſ-
.	.	8f#/	-ta	.	.	.	.	8d\	-ta	8a\	-ta
8c\	fù	4r	.	8F\	fù	8A/	fù	4r	.	4r	.
8B-\	ſi	.	.	8G\	ſi	8G/	ſi	.	.	.	.
8A/	preſ-	2a\	A	8D/	preſ-	8F#X/	preſ-	2.d\	A	2dd\	A
8A/	-ta	.	.	8D/	-ta	8F#/	-ta	.	.	.	.
4r	.	.	.	4r	.	4r	.	.	.	.	.
4r	.	4.b-\	trar-	2G\	A	2r	.	.	.	4.dd\	trar-
2G/	A	.	.	.	.	.	.	4.d\	trar-	.	.
.	.	8a\	-lo in	.	.	.	.	.	.	8cc\	-lo in
=23-	=23-	=23-	=23-	=23-	=23-	=23-	=23-	=23-	=23-	=23-	=23-
.	.	4.g/	mez-	4.G\	trar-	2d\	A	.	.	4.b-\	mez-
.	.	.	.	.	.	.	.	8c/	-lo in	.	.
4.g\	trar-	.	.	.	.	.	.	4.B-/	mez-	.	.
.	.	8a\	-z'a	8F\	-lo in	.	.	.	.	8a\	-z'a
.	.	4b-\	mil-	4.E-X\	mez-	4.g\	trar-	.	.	4g/	mil-
8f\	-lo in	.	.	.	.	.	.	8A/	-z'a	.	.
4.e-X\	mez-	4b-\	-le	.	.	.	.	2G/	mil-	4g/	-le
.	.	.	.	8D\	-z'a	8f\	-lo in	.	.	.	.
*	*	*	*	*	*	*custos:e-	*	*	*	*	*
!	!	!	!	!	!	!LO:LB:g=original	!	!	!	!	!
.	.	2cc\	fiã-	2C/	mil-	4.e-X\	mez-	.	.	1g	fiã-
8d\	-z'a	.	.	.	.	.	.	.	.	.	.
2c\	mil-	.	.	.	.	.	.	4g\	-le	.	.
.	.	.	.	.	.	8d\	-z'a	.	.	.	.
*	*	*custos:g	*	*	*	*	*	*	*	*	*
!	!	!LO:LB:g=original	!	!	!	!	!	!	!	!	!
.	.	4g/	-me	2C/	-le	1c\	mil-	4e\	fiã-	.	.
4G/	-le	4.cc\	ac-	.	.	.	.	4e\	-me ac-	.	.
=24-	=24-	=24-	=24-	=24-	=24-	=24-	=24-	=24-	=24-	=24-	=24-
4Fny/	fiã-	.	.	1.F	fiã-	.	.	2f\	-ce-	4a\	-me
.	.	8b-\	-ce-	.	.	.	.	.	.	.	.
4A/	-me ac-	8a\	.	.	.	.	.	.	.	4.cc\	ac-
.	.	8g/	.	.	.	.	.	.	.	.	.
*custos:c	*	*	*	*	*	*	*	*	*	*	*
!LO:LB:g=original	!	!	!	!	!	!	!	!	!	!	!
2c\	-ce-	4.fny/	.	.	.	2A/	-le	2F/	-ſe	.	.
.	.	.	.	.	.	.	.	.	.	8b-\	-ce-
.	.	.	.	.	.	.	.	.	.	8a\	.
.	.	8g/	.	.	.	.	.	.	.	8g\	.
1c	-ſe	4.a\	.	.	.	2Fny/	.	00r	.	8f/	.
.	.	.	.	.	.	.	.	.	.	8g/	.
.	.	.	.	.	.	.	.	.	.	4.a\	.
.	.	16g/	.	.	.	.	.	.	.	.	.
.	.	16f/	.	.	.	.	.	.	.	.	.
.	.	4.e/	.	2A\	-me ac-	4c\	.	.	.	.	.
.	.	.	.	.	.	.	.	.	.	8b-\	.
.	.	.	.	.	.	4c\	-me ac-	.	.	8cc\	.
.	.	8f/	.	.	.	.	.	.	.	8a\	.
*	*	*	*	*	*	*	*	*	*	*custos:b	*
!	!	!	!	!	!	!	!	!	!	!LO:LB:g=original	!
=25-	=25-	=25-	=25-	=25-	=25-	=25-	=25-	=25-	=25-	=25-	=25-
!	!	!	!	!	!	!	!	!	!	!LO:N:acc=#	!
1r	.	1g	.	1G	-ce-	1d	-ce-	.	.	4bn\	.
.	.	.	.	.	.	.	.	.	.	2cc\	.
!	!	!	!	!	!	!	!	!	!	!LO:N:acc=#	!
.	.	.	.	.	.	.	.	.	.	4bn\	.
2r	.	1g	-ſe	1C	-ſe	1c	-ſe	.	.	1cc	-ſe
4r	.	.	.	.	.	.	.	.	.	.	.
4.c\	Hor	.	.	.	.	.	.	.	.	.	.
=26-	=26-	=26-	=26-	=26-	=26-	=26-	=26-	=26-	=26-	=26-	=26-
.	che	4.a\	Hor	4.F\	Hor	0r	.	.	.	0r	.
8c\	l'hò	.	.	.	.	.	.	.	.	.	.
2d\	qui	.	.	.	.	.	.	.	.	.	.
.	.	8a\	che	8F\	che	.	.	.	.	.	.
.	.	2b-\	l'hò	2G\	l'hò	.	.	.	.	.	.
4.eny\	riſ-	.	.	.	.	.	.	.	.	.	.
.	.	4.cc\	qui	4.A\	qui	.	.	1r	.	.	.
8c\	-tret	.	.	.	.	.	.	.	.	.	.
4.f\	qui	.	.	.	.	.	.	.	.	.	.
.	.	8dd\	riſ-	8B-\	ri-	.	.	.	.	.	.
*	*	*	*	*custos:G	*	*	*	*	*	*	*
!	!	!	!	!LO:LB:g=original	!	!	!	!	!	!	!
.	.	2b-\	-tret-	2G\	-ſtret-	.	.	.	.	.	.
16e\	riſ-	.	.	.	.	.	.	.	.	.	.
16d\	-tret-	.	.	.	.	.	.	.	.	.	.
4e\	.	.	.	.	.	.	.	.	.	.	.
=27-	=27-	=27-	=27-	=27-	=27-	=27-	=27-	=27-	=27-	=27-	=27-
1f	-ta	1a	-ta	1F	-ta	2r	.	4r	.	2r	.
.	.	.	.	.	.	.	.	4.c/	Hor	.	.
.	.	.	.	.	.	4.F/	Hor	.	.	4.a\	Hor
.	.	.	.	.	.	.	.	8c/	che	.	.
.	.	.	.	.	.	.	.	2d\	l'hò	.	.
.	.	.	.	.	.	8F/	che	.	.	8a\	che
0r	.	0r	.	0r	.	2G/	l'hò	.	.	2b-y\	l'hò
.	.	.	.	.	.	.	.	4.e\	qui-	.	.
.	.	.	.	.	.	4.A/	qui	.	.	4.cc\	qui
.	.	.	.	.	.	.	.	8c/	-ri-	.	.
*	*	*	*	*	*	*	*	*custos:f	*	*	*
!	!	!	!	!	!	!	!	!LO:LB:g=original	!	!	!
.	.	.	.	.	.	.	.	2f\	-ſtret-	.	.
.	.	.	.	.	.	8B-\	riſ-	.	.	8dd\	riſ-
=28-	=28-	=28-	=28-	=28-	=28-	=28-	=28-	=28-	=28-	=28-	=28-
.	.	.	.	.	.	1G	-tret-	.	.	1b-	-tret-
.	.	.	.	.	.	.	.	8e\	.	.	.
.	.	.	.	.	.	.	.	8d\	.	.	.
.	.	.	.	.	.	.	.	2e\	.	.	.
4r	.	4r	.	4r	.	2F/	-ta	4f\	-ta	2a\	-ta
4A/	Vẽ(n)-	4cc\	Vẽ(n)-	4F\	Vẽ(n)-	.	.	4c/	Vẽ(n)-	.	.
4G/	-det-	4.cc\	-det-	4Eny\	-det-	2r	.	4.e\	-det-	2r	.
4G/	-t'A-	.	.	4C/	-t'A-	.	.	.	.	.	.
.	.	8b-\	-t'A-	.	.	.	.	8d\	-t'A-	.	.
*	*	*custos:a	*	*	*	*	*	*	*	*	*
!	!	!LO:LB:g=original	!	!	!	!	!	!	!	!	!
=29-	=29-	=29-	=29-	=29-	=29-	=29-	=29-	=29-	=29-	=29-	=29-
4A/	-mor	4a\	-mor	4F\	-mor	4r	.	4c/	-mor	4r	.
4c\	ven-	4a\	ven-	4FF/	ven-	4F/	Vẽ(n)-	4f\	ven-	4cc\	Vẽ(n)-
2c\	-det-	2g/	-det-	2C/	-det-	4.G/	-det-	2e\	-det-	4.cc\	-det-
.	.	.	.	.	.	8G/	-t'A-	.	.	8b-\	-t'A-
*	*	*	*	*	*	*custos:A	*	*	*	*	*
!	!	!	!	!	!	!LO:LB:g=original	!	!	!	!	!
1c	-ta	4f/	-ta	4FF/	-ta	4A/	-mor	4f\	-ta	4a\	-mor
.	.	4cc\	Ven-	4F\	Vẽ(n)-	4A/	ven-	4c/	Ven-	4a\	ven-
.	.	4.cc\	-det-	4E\	-det-	1c\	-det-	4.e\	-det-	2g/	-det-
.	.	.	.	4C/	-t'A-	.	.	.	.	.	.
.	.	8b-\	-t'A-	.	.	.	.	8d\	-t'A-	.	.
*custos:F	*	*	*	*	*	*	*	*	*	*	*
!LO:LB:g=original	!	!	!	!	!	!	!	!	!	!	!
=30-	=30-	=30-	=30-	=30-	=30-	=30-	=30-	=30-	=30-	=30-	=30-
4r	.	4a\	-mor	4F\	-mor	.	-ta	4c/	-mor	4f/	-ta
4F/	Ven-	4a\	ven-	4FF/	ven-	.	.	4f\	ven-	4cc\	Ven-
*	*	*	*	*	*	*	*	*	*	*custos:cc	*
!	!	!	!	!	!	!	!	!	!	!LO:LB:g=original	!
4.G/	-det-	2g/	-det-	2C/	-det-	2c\	Ven-	2e\	-det-	4.cc\	-det-
8G/	-t'A-	.	.	.	.	.	.	.	.	8b-\	-t'A-
2A/	-mor	4f/	-ta	4FF/	-ta	4r	.	4c/	-ta	4a\	-mor
.	.	4cc\	Ven-	4FF/	ven-	4f\	-det-	4F/	Ven-	4a\	ven-
4r	.	4.cc\	-det-	2C/	-det-	4.eny\	-t'A-	4.G/	-det-	2g/	-det-
4c\	Ven-	.	.	.	.	.	.	.	.	.	.
.	.	8b-\	-ta A-	.	.	8e\	-mor	8G/	-ta A-	.	.
*	*	*	*	*	*	*	*	*custos:A	*	*	*
!	!	!	!	!	!	!	!	!LO:LB:g=original	!	!	!
=31-	=31-	=31-	=31-	=31-	=31-	=31-	=31-	=31-	=31-	=31-	=31-
4.c\	-det-	4a\	-mor	2FF/	-ta	2f\	ven-	2A/	-mor	2f/	-ta
.	.	2a\	ven-	.	.	.	.	.	.	.	.
8B-\	-ta A-	.	.	.	.	.	.	.	.	.	.
4A/	-mor	.	.	2FF/	ven-	4F/	-det-	2c/	ven-	4r	.
4A/	ven-	2f/	-det-	.	.	2c\	.	.	.	4cc\	ven-
1G	-det-	.	.	1C	-det-	.	.	1c	-det-	1cc	-det-
.	.	8e/	.	.	.	8B-\	.	.	.	.	.
.	.	8d/	.	.	.	8A\	.	.	.	.	.
.	.	2e/	.	.	.	2G/	.	.	.	.	.
=32-	=32-	=32-	=32-	=32-	=32-	=32-	=32-	=32-	=32-	=32-	=32-
00F	-ta.	00f	-ta.	00FF	-ta.	00A	-ta.	00c	-ta.	00a	-ta.
==	==	==	==	==	==	==	==	==	==	==	==
*-	*-	*-	*-	*-	*-	*-	*-	*-	*-	*-	*-
!!!system-decoration: [(s1,s2,s3,s4,s5,s6)]
!!!ENC: Andrzej Gręziak
!!!END: 2022-06-15
!!!ENC: Natalia Wrzos
!!!END: 2022-07-26
